X:1
T:The Well-Tempered Clavier Book II - XVIII
T:BWV 887    (A = 415 Hz)
T:J. S. Bach
%%score { ( 1 2 5 ) | ( 3 4 ) }
L:1/8
M:4/4
K:B
V:1 treble 
V:2 treble 
V:5 treble 
V:3 bass 
V:4 bass 
V:1
"^Praeludium" G/A/B/c/ d/B/A/G/ ^^F/G/A/=E/ D/ z/ z | z B{B} c2 z B{B} A2 | %2
 G/A/B/c/ d/B/A/G/ ^^F/G/A/=E/ D/ z/ z | z g{g} a2 z g{g} ^^f2 | z B/A/ Bg z B z A/G/ | %5
 z A/G/ Af z A z G/F/ | z G/G/ G^e z G z G/^E/ | F2 z/ A/G/F/ ^E/D/E/G/ ^^F/E/F/A/ | %8
 AG z/ ^F/=E/D/ C/^B,/C/E/ D/C/D/F/ | FE z/ D/C/B,/[I:staff +1] A,/G,/A,/C/ ^B,/A,/B,/D/ | %10
 G,/^^F,/G,/=B,/ A,/G,/A,/C/[I:staff -1] F,/E/D/C/ A/C/A/C/ | %11
 ^B,/=A/G/F/ d/F/d/F/ ^E/=D/C/=B,/ G/B,/G/B,/ | A,/=G/F/E/ c/E/c/E/ D/F/^G/A/ B/F/^E/D/ | %13
 ^^C/B/A/G/ ^e/G/e/G/ F/A/d/e/ f/d/^B/d/ | ^^G/f/^e/d/ ^b/d/b/d/ ^^c/d/e/a/ A/ z/ z | %15
 z/ ^^c/d/^e/ f/4e/4d/b ba z2 | z f{f} g2 z f{f} ^e2 | z d e/4d/4^^c/d z d ^c/B/c/a/ | %18
 B z c z B z A z | z ^e/d/ eg ^^ce A2- | AA/G/ Af z d z ^B | z G/F/ G^e z c z A | z ^^GAd z d^^cb | %23
 a2 z/ a/^e/g/- g^^f z2 | G/A/B/c/ d/B/A/G/ ^^F/G/A/=E/ D/ z/ z | z B{B} c2 z B{B} A2 | %26
 G/A/B/c/ d/B/A/G/ ^^F/G/A/=E/ D/ z/ z | z g{g} a2 z g{g} ^^f2 | z B/A/ Bg z B z A/G/ | %29
 z A/G/ Af z A z G/F/ | z G/G/ G^e z G z G/^E/ | F2 z/ A/G/F/ ^E/D/E/G/ ^^F/E/F/A/ | %32
 AG z/ ^F/=E/D/ C/^B,/C/E/ D/C/D/F/ | FE z/ D/C/B,/[I:staff +1] A,/G,/A,/C/ ^B,/A,/B,/D/ | %34
 G,/^^F,/G,/=B,/ A,/G,/A,/C/[I:staff -1] F,/E/D/C/ A/C/A/C/ | %35
 ^B,/=A/G/F/ d/F/d/F/ ^E/=D/C/=B,/ G/B,/G/B,/ | A,/=G/F/E/ c/E/c/E/ D/F/^G/A/ B/F/^E/D/ | %37
 ^^C/B/A/G/ ^e/G/e/G/ F/A/d/e/ f/d/^B/d/ | ^^G/f/^e/d/ ^b/d/b/d/ ^^c/d/e/a/ A/ z/ z | %39
 z/ ^^c/d/^e/ f/4e/4d/b ba z2 | z f{f} g2 z f{f} ^e2 | z d e/4d/4^^c/d z d ^c/B/c/a/ | %42
 B z c z B z A z | z ^e/d/ eg ^^ce A2- | AA/G/ Af z d z ^B | z G/F/ G^e z c z A | z ^^GAd z d^^cb | %47
 a2 z/ a/^e/g/- g^^f z2 | d/^e/^^f/g/ a/=e/d/c/ ^B/c/d/=A/ G/^F/E/D/ | %49
 E/c/E/c/ ^E/=d/E/d/ c/=A/G/F/ E/d/c/B/ | A/B/c/d/ e/B/=A/G/ ^^F/G/^A/E/ D/C/B,/A,/ | %51
 B,/G/B,/G/ ^B,/=A/B,/A/ G/E/D/C/ B,/A/G/F/ | ^E/F/G/A/ B/=d/c/B/ A/B/c/=G/ F/=E/^D/C/ | %53
 D/E/F/G/ =A/c/B/A/ G/A/B/F/ E/=D/C/B,/ | C=A{A} B2 z A{A} G2 | z F/G/ =Ac z edc | %56
 z B/A/ Bd z f^ed | ^^c/B/A/G/ ^e/G/e/G/ ^^F/=e/d/^c/ a/c/a/c/ | %58
 ^B/=A/G/F/ d/F/d/F/ ^E/=d/c/=B/ g/B/g/B/ | A/c/d/^e/ fA ^^Gfe^G | ^^F/A/^B/^^c/ d^F ^E=d^c=E | %61
 D/^^F/G/A/ BD ^^CBA^C | ^B,=AG=B, A,G^^F=A, | G,F^E=E ED z2 | %64
 G/A/B/c/ d/B/A/G/ ^^F/G/A/E/ D/ z/ z | z g{g} a2 z g{g} ^^f2 | z/ ^^F/G/A/ B/4A/4G/e ed z2 | %67
 z Bc^B z cfd | z ef^e z aaa | [ea]2 z/ e/d/c/ B/c/d/G/ B/A/G/=G/ | %70
 G/B/G/B/ F/d/F/d/ ^E/c/E/c/ C/B/C/B/ | F/A/F/A/ E/c/E/c/ D/B/D/B/ B,/A/B,/A/ | %72
 E/G/E/G/ D/B/D/B/ ^^C/A/C/A/ A,/G/A,/G/ | ^^F/D/G/A/ BA- AG z2 | %74
 d/^e/^^f/g/ a/=e/d/c/ ^B/c/d/=A/ G/^F/E/D/ | E/c/E/c/ ^E/=d/E/d/ c/=A/G/F/ E/d/c/B/ | %76
 A/B/c/d/ e/B/=A/G/ ^^F/G/^A/E/ D/C/B,/A,/ | B,/G/B,/G/ ^B,/=A/B,/A/ G/E/D/C/ B,/A/G/F/ | %78
 ^E/F/G/A/ B/=d/c/B/ A/B/c/=G/ F/=E/^D/C/ | D/E/F/G/ =A/c/B/A/ G/A/B/F/ E/=D/C/B,/ | %80
 C=A{A} B2 z A{A} G2 | z F/G/ =Ac z edc | z B/A/ Bd z f^ed | %83
 ^^c/B/A/G/ ^e/G/e/G/ ^^F/=e/d/^c/ a/c/a/c/ | ^B/=A/G/F/ d/F/d/F/ ^E/=d/c/=B/ g/B/g/B/ | %85
 A/c/d/^e/ fA ^^Gfe^G | ^^F/A/^B/^^c/ d^F ^E=d^c=E | D/^^F/G/A/ BD ^^CBA^C | ^B,=AG=B, A,G^^F=A, | %89
 G,F^E=E ED z2 | G/A/B/c/ d/B/A/G/ ^^F/G/A/E/ D/ z/ z | z g{g} a2 z g{g} ^^f2 | %92
 z/ ^^F/G/A/ B/4A/4G/e ed z2 | z Bc^B z cfd | z ef^e z aaa | [ea]2 z/ e/d/c/ B/c/d/G/ B/A/G/=G/ | %96
 G/B/G/B/ F/d/F/d/ ^E/c/E/c/ C/B/C/B/ | F/A/F/A/ E/c/E/c/ D/B/D/B/ B,/A/B,/A/ | %98
 E/G/E/G/ D/B/D/B/ ^^C/A/C/A/ A,/G/A,/G/ | ^^F/D/G/A/ BA- A!fermata!G z2 | z8 | %101
[M:6/8]"^Fuga" GAB AdD | GBA BAG | ABc BeG | AcB cBA | B2 ^B c3- | c3 ^B3 | c2 ^^c d3- | d3 ^^c3 | %109
 d c2- cA^B | c B2- BGA | B3- BAc | ^^FdG c3- | ced cBA | B2 d g3- | g2 ^^f g2 b | c2 d edc | %117
 d3 c3 | B3 A3 | G z z z3 | z z d d2 ^^c | d2 z z3 | z z e d2 c | B2 G A2 ^B | cGc- cA=c | e3 d3- | %126
 dc=a- a^^fg | c6 | B6 | A3- A2 ^^c | d^ef- f=fg | ^^c^eA d3- | d3 ^^c3 | d2 z G2 z | F2 z z3 | %135
 z6 | z6 | z3 z z E | F=AG AGF | EG/F/G/A/ B3- | B3 A3 | B3 c3 | d3 edc | Bdf- fd^e- | %144
 eAd- d^B^^c | d^ef eaA | df^e fed | ^efg fbd | ^egf gfe | f2 ^^f g2 ^f | e2 ^e f2 =e | d3 c3- | %152
 c2 B2 Ac | ^^F2 A- ADG- | G2 c ^^F3 | G2 D CB,A, | B,2 z z z B | cde dcB | c A2- A2 d | d6- | %160
 d3 ^^c3 | d2 d ^^c2 ^c | ^B2 =B A2 ^B | c2 ^^c d3- | d3 d/4^^c/4d/4c/4d/4c/4d/4c/4d/4c/4d/4c/4 | %165
 d2 c B2 A | G2 c- cA^B | cGA BcB | Adc Bed | cde Adc | Bcd Gcd | e3 d3 | c3 B g2 | fed- dc/^B/c | %174
 d6- | dGc- cB/A/B | A6- | A2 G c3 | B3 A3- | AGg ^^f2 ^f | ^e2 =e d2 ^e | f2 ^^f g3- | g3 ^^f3- | %183
 f^e^^f g2 ^^g | a6- | afg a3- | a g2- g^ef | ^e2 f g3- | g f3 de | d2 c B3 | A2 ^B c/d/ed | %191
 G3 c3- | cBc d/c/B/A/B/e/ | A2 z e2 a | d2 g c>ed/c/ | B3- BA/G/^^F/^E/ | DdG- G^^Fc | B2 z z3 | %198
 z6 | z6 | z6 | z6 | z6 | d^ef eaA | df^e fed | ^efg fbd | ^egf gfe | f3 ^e2 =e | d3 ^^c2 ^c | %209
 Bdg- gf/e/f- | fBe- ed/c/d | cde d2 =d | c2 =c B2 ^c | =d2 ^d e3- | e3 d3 | e2 G A2 ^B | %216
 c2 =A F2 G | E2 z z3 | z3 z z B- | BA^B c3- | c^B^^c d3- | d^^cd ^e3- | ed/^^c/ d2 ^c/B/c- | %223
 cdc Bed | cde Adc | B2 z z3 | z z C F2 G- | GFE DGB | ^E3 A3- | A2 G- G2 ^^F | G2 z z dc | %231
 dcB cBA | B3- BAG | A3- AG^^F | G4 ^E^^F | GAB AdD | GBA BAG | ABc BeG | AcB cBA | Bcd- dcB | %240
 A^eA A3- | Aed d3- | dcB{d} cBA | G6 |] %244
V:2
[I:staff +1] D2[I:staff -1] z2[I:staff +1] C2[I:staff -1] z2 | z G{G} A2 z G{G} ^^F2 | %2
[I:staff +1] D2[I:staff -1] z2[I:staff +1] C2[I:staff -1] z2 | z B{B} c2 z B{B} A2 | %4
 z G/^^F/ GB z G z ^E | z F/^E/ FA z F z D | z ^^C/D/ ^EG z E z ^^C | D2 z2 z4 | x8 | x8 | x8 | %11
 x8 | x8 | x8 | x8 | x8 | z d{d} ^e2 z d{d} ^^c2 | x8 | z D E/4D/4^^C/D z E/4D/4C/ Dd | %19
 G4- G/A/G/F/ ^E/D/E/^^C/ | DF/^E/ FA z F z E/D/ | z ^E/D/ EG z E z D/^^C/ | %22
 z F/^E/ F/D/^B z B/A/ =B/^G/g- | gf/4^e/4d/ ^^c2- cd z2 | %24
[I:staff +1] D2[I:staff -1] z2[I:staff +1] C2[I:staff -1] z2 | z G{G} A2 z G{G} ^^F2 | %26
[I:staff +1] D2[I:staff -1] z2[I:staff +1] C2[I:staff -1] z2 | z B{B} c2 z B{B} A2 | %28
 z G/^^F/ GB z G z ^E | z F/^E/ FA z F z D | z ^^C/D/ ^EG z E z ^^C | D2 z2 z4 | x8 | x8 | x8 | %35
 x8 | x8 | x8 | x8 | x8 | z d{d} ^e2 z d{d} ^^c2 | x8 | z D E/4D/4^^C/D z E/4D/4C/ Dd | %43
 G4- G/A/G/F/ ^E/D/E/^^C/ | DF/^E/ FA z F z E/D/ | z ^E/D/ EG z E z D/^^C/ | %46
 z F/^E/ F/D/^B z B/A/ =B/^G/g- | gf/4^e/4d/ ^^c2- cd z2 | x8 | x8 | x8 | x8 | x8 | x8 | %54
 z C{C} =D2 z C{C} B,2 | z =A,/B,/ CG z ^^FG^A | z G/^^F/ GA z ^^GA^B | ^E/ z/ z z2 z4 | x8 | x8 | %60
 x8 | x8 | x8 | z2 z G, G,^^F, z2 | x8 | z B{B} c2 z B{B} A2 | z2 z c c^^F z2 | z G=AG z GAF | %68
 z G=dc z =e/^d/ ee | c2 z2 z4 | z2 z[I:staff +1] =A,[I:staff -1] z[I:staff +1] G,G,G, | %71
 F,2[I:staff -1] z[I:staff +1] =G,[I:staff -1] z[I:staff +1] F,F,F, | %72
 F,2[I:staff -1] z[I:staff +1] F,[I:staff -1] z[I:staff +1] ^E,E,=E, | %73
 D,[I:staff -1] G- G^^F- FD z2 | x8 | x8 | x8 | x8 | x8 | x8 | z C{C} =D2 z C{C} B,2 | %81
 z =A,/B,/ CG z ^^FG^A | z G/^^F/ GA z ^^GA^B | ^E/ z/ z z2 z4 | x8 | x8 | x8 | x8 | x8 | %89
 z2 z G, G,^^F, z2 | x8 | z B{B} c2 z B{B} A2 | z2 z c c^^F z2 | z G=AG z GAF | %94
 z G=dc z =e/^d/ ee | c2 z2 z4 | z2 z[I:staff +1] =A,[I:staff -1] z[I:staff +1] G,G,G, | %97
 F,2[I:staff -1] z[I:staff +1] =G,[I:staff -1] z[I:staff +1] F,F,F, | %98
 F,2[I:staff -1] z[I:staff +1] F,[I:staff -1] z[I:staff +1] ^E,E,=E, | %99
 D,[I:staff -1] G- G^^F- F!fermata!D z2 | x8 |[M:6/8] x6 | x6 | x6 | x6 | D^EF EAA, | DF^E FED | %107
 ^EFG FBD | ^EGF GFE | F2 ^^F G2 ^F | E2 ^^E F2 =E | DGG, C3- | C2 B, A,G^^F | G3- G2 ^^F | %114
 G2 z z z B | cde dcB- | BAG F3- | FFB- BGA- | ADG G^E^^F | GAB AdD | GBA BAG | ABc BeG | AcB cBA | %123
 BB,E- ECD |[I:staff +1] G,3[I:staff -1] z3 | z z =A F2 G |[I:staff +1] E3 D3 | %127
[I:staff -1] ^E^^FG A3- | AG^F ^EGD | ^^CD^E F3- | FGA G3- | G3 FAD | ^EFG- GAE | F^ED- D^^CE- | %134
 ED^^C D2 B | ^C2 B AGF | GB,A, B,GB, | A,2 ^B, C3- | C3 ^B,3 | C2 z z DG | CED EDC | D2 G E2 ^^F | %142
 B3 A3 |[I:staff +1] D2 ^^C D2[I:staff -1] G | F3 ^E3 |[I:staff +1] D^^C^B, C F2- | FD^^C D G2- | %147
 G2 ^E CDF |[I:staff -1] B3 A3- | A c2- cA^B | c B2- BGA | B3 A3- | ADG E3- | EDC B,3 | A,CE- EDC | %155
 B,A,G,- G,2 ^^F, | G,2 D G3- | G2 ^^F G3- | G2 G ^^F2 z | z z A B2 ^^F | GAB- BAG- | G^^F z z3 | %162
 x6 | x6 | x6 | x6 | z z G ^^F2 ^F | ^E2 =E D2 ^E | F2 ^^F G3- | %169
 G3 G/4^^F/4G/4F/4G/4F/4G/4F/4G/4F/4G/4F/4 | G2[I:staff +1] ^F E2 D | C[I:staff -1]E=A- AG/F/G- | %172
 G[I:staff +1]CF- FE/D/E | DGF E[I:staff -1]=AG | FG=A DGF | E6- | ECF- FE/D/E | D3 E3 | D3 C3 | %179
 B,2[I:staff +1] C- CA,^B, | C3- C B,2- | B, A,2[I:staff -1] z[I:staff +1] D,F,- | %182
 F,^E,B, B,A,/G,/A,/^^F,/ | G,2 ^B, ^E2[I:staff -1] z | z A^B c2 ^^c | d3- dd^c | ^B2 c d3- | %187
 d c2- cAB | A2 B c3- | cBA- AGG- | G F2- F3- | F^E^^F G/A/BA | D3 G3- | G^^Fd- d c2- | %194
 c B2- B A2- | A[I:staff +1]G/F/E/D/ C3- | C2 B, A,/G,/A,C, | G,2[I:staff -1] G ^^F2 ^F | %198
 ^E2 =E D2 ^E | F2 ^^F G3- | G3 ^^F3 | GBD EDC | B,/D/GF ^EAG | F2[I:staff +1] D ^^C2 ^C | %204
 ^B,2 =B, A,2 ^B, | C2 ^^C D3- | D3 ^^C3 | D[I:staff -1]Ad- dc/B/c- | cFB- BA/G/A | B3 A2 =A | %210
 G3 ^^F2 ^F | EFG FB[I:staff +1]B, |[I:staff -1] EGF GFE | FG=A GcE | F=AG AGF | G2 G ^^F2 ^F | %216
 ^E2 =E D3- | DC=A- AG/F/G- | GCF- FE/D/E | F3- F^E^^F | G3- G^^F^^G | A3- A2 G | F z z z z A | %223
[I:staff +1] D3- DCB, | A,B,C D2 D, | G,[I:staff -1]A,B, A,D[I:staff +1]F, | %226
[I:staff -1] G,B,A, B,A,G, | A,B,C B,E[I:staff +1]G, |[I:staff -1] A,CB, CB,A, | B,3 A,DC | %230
 DCB, C[I:staff +1]B,A, | B,A,G, A,G,^^F, | G,3- G,^CB, | CB,A, B,3- | B,3 A,3 | %235
 D,2[I:staff -1] G ^^F2 ^F | ^E2 =E D2 ^E | F2 ^^F G3- | G3 ^^F3 | G6- | G3- G^^F^E | ^^F6 | %242
 G3- G2 ^^F | G6 |] %244
V:3
 B,2 z2 A,2 z/ C/B,/A,/ | G,/D/G,/D/ ^^F,/D/F,/D/ G,/D/G,/D/ D,/D/D,/D/ | B,2 z2 A,2 z/ C/B,/A,/ | %3
 G,/D/G,/D/ ^^F,/D/F,/D/ G,/D/G,/D/ D,/D/D,/D/ | G,/D/G,/D/ F,/D/F,/D/ ^E,/C/E,/C/ C,/C/C,/C/ | %5
 F,/C/F,/C/ =F,/C/F,/C/ D,/B,/D,/B,/ B,,/B,/B,,/B,/ | %6
 ^E,/B,/E,/B,/ D,/B,/D,/B,/ ^^C,/A,/C,/A,/ A,,/A,/A,,/A,/ | D,/F,/G,/A,/ B,D, ^^C,B,A,^C, | %8
 ^B,,/D,/^E,/^^F,/ G,=B,, A,,F,^F,=A,, | G,,/^B,,/C,/D,/ E,G,, ^^F,,E,D,^F,, | %10
 ^E,,=D,C,=E,, ^D,,^E,,^^F,,D,, | G,,^A,,^B,,G,, C,^D,^E,C, | F,G,A,F, B,A,G,F, | %13
 ^E,G,^^C,A,, D,^C,^B,,A,, | ^B,,D,^^G,,^E,, A,, z[K:treble] z/ ^G/F/^E/ | %15
 D/^E/F/G/ A/F/E/D/ ^^C/D/E/=B,/[K:bass] A,/G,/F,/^E,/ | %16
 D,/A,/D,/A,/ ^^C,/A,/C,/A,/ D,/A,/D,/A,/ A,,/G,/A,,/G,/ | %17
 B,,/F,/B,,/F,/ A,,/F,/A,,/F,/ B,,/F,/B,,/F,/ ^^F,,/E,/F,,/E,/ | %18
 G,,/D,/G,,/D,/ ^^F,,/D,/F,,/D,/ G,,/D,/G,,/D,/ ^F,,/D,/F,,/D,/ | %19
 ^E,,/D,/^^C,/^B,,/ C,/G,/^E,/G,/ A,,/G,/B,,/G,/ C,/G,/A,,/G,/ | %20
 D,/F,/D,/F,/ C,/A,/C,/A,/ ^B,,/G,/B,,/G,/ G,,/G,/G,,/F,/ | %21
 C,/^E,/C,/E,/ B,,/G,/B,,/G,/ A,,/F,/A,,/F,/ F,,/F,/F,,/E,/ | %22
 ^B,,/D,/B,,/D,/ A,,/F,/A,,/F,/ ^^G,,/^E,/G,,/E,/ ^E,,/E,/E,,/D,/ | %23
 ^^C,/A,,/D,/F,/ A,A,, D,,3/2^^F,,/4A,,/4 D,2 | B,2 z2 A,2 z/ C/B,/A,/ | %25
 G,/D/G,/D/ ^^F,/D/F,/D/ G,/D/G,/D/ D,/D/D,/D/ | B,2 z2 A,2 z/ C/B,/A,/ | %27
 G,/D/G,/D/ ^^F,/D/F,/D/ G,/D/G,/D/ D,/D/D,/D/ | G,/D/G,/D/ F,/D/F,/D/ ^E,/C/E,/C/ C,/C/C,/C/ | %29
 F,/C/F,/C/ =F,/C/F,/C/ D,/B,/D,/B,/ B,,/B,/B,,/B,/ | %30
 ^E,/B,/E,/B,/ D,/B,/D,/B,/ ^^C,/A,/C,/A,/ A,,/A,/A,,/A,/ | D,/F,/G,/A,/ B,D, ^^C,B,A,^C, | %32
 ^B,,/D,/^E,/^^F,/ G,=B,, A,,F,^F,=A,, | G,,/^B,,/C,/D,/ E,G,, ^^F,,E,D,^F,, | %34
 ^E,,=D,C,=E,, ^D,,^E,,^^F,,D,, | G,,^A,,^B,,G,, C,^D,^E,C, | F,G,A,F, B,A,G,F, | %37
 ^E,G,^^C,A,, D,^C,^B,,A,, | ^B,,D,^^G,,^E,, A,, z z/ ^G/F/^E/ | %39
 D/^E/F/G/ A/F/E/D/ ^^C/D/E/=B,/ A,/G,/F,/^E,/ | %40
 D,/A,/D,/A,/ ^^C,/A,/C,/A,/ D,/A,/D,/A,/ A,,/G,/A,,/G,/ | %41
 B,,/F,/B,,/F,/ A,,/F,/A,,/F,/ B,,/F,/B,,/F,/ ^^F,,/E,/F,,/E,/ | %42
 G,,/D,/G,,/D,/ ^^F,,/D,/F,,/D,/ G,,/D,/G,,/D,/ ^F,,/D,/F,,/D,/ | %43
 ^E,,/D,/^^C,/^B,,/ C,/G,/^E,/G,/ A,,/G,/B,,/G,/ C,/G,/A,,/G,/ | %44
 D,/F,/D,/F,/ C,/A,/C,/A,/ ^B,,/G,/B,,/G,/ G,,/G,/G,,/F,/ | %45
 C,/^E,/C,/E,/ B,,/G,/B,,/G,/ A,,/F,/A,,/F,/ F,,/F,/F,,/E,/ | %46
 ^B,,/D,/B,,/D,/ A,,/F,/A,,/F,/ ^^G,,/^E,/G,,/E,/ ^E,,/E,/E,,/D,/ | %47
 ^^C,/A,,/D,/F,/ A,A,, D,,3/2^^F,,/4A,,/4 D,2 | z D,/^E,/ ^^F,A, DC^B,G, | CC,B,,B, =A,=A,,G,,G, | %50
 F,F,,C,E, A,,C,^^F,,D, | G,G,,F,,F, E,E,,D,,D, | C,C,, z/ C/D/^E/ FF, z/ F,/G,/A,/ | %53
 B,B,, z/ B,,/C,/D,/ E,E,, z/ E,,/F,,/G,,/ | %54
 =A,,/E,/A,,/E,/ G,,/E,/G,,/E,/ A,,/E,/A,,/E,/ ^E,,/=D,/E,,/D,/ | %55
 F,,/C,/F,,/C,/ E,,/C,/E,,/C,/ D,,/^^F,,/^A,,/C,/ B,,/A,,/G,,/F,,/ | %56
 G,,/D,/G,,/D,/ F,,/D,/F,,/D,/ ^E,,/^^G,,/^B,,/D,/ C,/B,,/A,,/G,,/ | A,,^B,,^^C,A,, D,^E,^^F,D, | %58
 G,A,^B,G, CD^EC | F2 z/ ^E/D/C/ ^B,/A,/B,/D/ ^^C/B,/C/E/ | %60
 ^ED z/ C/B,/A,/ G,/^^F,/G,/B,/ A,/G,/A,/C/ | CB, z/ A,/G,/F,/ ^E,/D,/=F,/G,/ ^^F,/E,/F,/A,/ | %62
 D,/^^C,/D,/F,/ E,/D,/E,/G,/ C,/^B,,/C,/^E,/ D,/C,/D,/F,/ | %63
 ^B,,/A,,/B,,/D,/ C,/B,,/C,/E,/ A,,/=B,,/C,/A,,/ C,/^^F,/A,/C,/ | %64
 B,,/A,,/G,,/A,,/ B,,/C,/D,/E,/ E,^^F,, z/ C/B,/A,/ | %65
 G,/D/G,/D/ ^^F,/D/F,/D/ G,/D/G,/D/ D,/D/D,/D/ | %66
 G,/A,/B,/C/ D/B,/A,/G,/ ^^F,/G,/A,/E,/ D,/C,/B,,/A,,/ | %67
 G,,/G,/G,,/G,/ F,/D/F,/D/ E,/C/E,/C/ D,/^B,/D,/B,/ | %68
 C,/C/C,/C/[K:treble] B,/G/B,/G/ A,/^^F/A,/F/ G,/G/G,/G/ | ^^F/G/A/E/[K:bass] D/C/B,/A,/ G,B,CD | %70
 EE, z [^B,,D,] z C,/D,/ ^E,E, | E,F,, z [A,,C,] z B,,/C,/ D,D, | %72
 E,E,, z [G,,B,,] z A,,/^B,,/ ^^C,^C,- | C,B,,/C,/ D,D,, G,,3/2B,,/4D,/4 G,2 | %74
 z D,/^E,/ ^^F,A, DC^B,G, | CC,B,,B, =A,=A,,G,,G, | F,F,,C,E, A,,C,^^F,,D, | %77
 G,G,,F,,F, E,E,,D,,D, | C,C,, z/ C/D/^E/ FF, z/ F,/G,/A,/ | %79
 B,B,, z/ B,,/C,/D,/ E,E,, z/ E,,/F,,/G,,/ | %80
 =A,,/E,/A,,/E,/ G,,/E,/G,,/E,/ A,,/E,/A,,/E,/ ^E,,/=D,/E,,/D,/ | %81
 F,,/C,/F,,/C,/ E,,/C,/E,,/C,/ D,,/^^F,,/^A,,/C,/ B,,/A,,/G,,/F,,/ | %82
 G,,/D,/G,,/D,/ F,,/D,/F,,/D,/ ^E,,/^^G,,/^B,,/D,/ C,/B,,/A,,/G,,/ | A,,^B,,^^C,A,, D,^E,^^F,D, | %84
 G,A,^B,G, CD^EC | F2 z/ ^E/D/C/ ^B,/A,/B,/D/ ^^C/B,/C/E/ | %86
 ^ED z/ C/B,/A,/ G,/^^F,/G,/B,/ A,/G,/A,/C/ | CB, z/ A,/G,/F,/ ^E,/D,/=F,/G,/ ^^F,/E,/F,/A,/ | %88
 D,/^^C,/D,/F,/ E,/D,/E,/G,/ C,/^B,,/C,/^E,/ D,/C,/D,/F,/ | %89
 ^B,,/A,,/B,,/D,/ C,/B,,/C,/E,/ A,,/=B,,/C,/A,,/ C,/^^F,/A,/C,/ | %90
 B,,/A,,/G,,/A,,/ B,,/C,/D,/E,/ E,^^F,, z/ C/B,/A,/ | %91
 G,/D/G,/D/ ^^F,/D/F,/D/ G,/D/G,/D/ D,/D/D,/D/ | %92
 G,/A,/B,/C/ D/B,/A,/G,/ ^^F,/G,/A,/E,/ D,/C,/B,,/A,,/ | %93
 G,,/G,/G,,/G,/ F,/D/F,/D/ E,/C/E,/C/ D,/^B,/D,/B,/ | %94
 C,/C/C,/C/ B,/G/B,/G/ A,/^^F/A,/F/ G,/G/G,/G/ | ^^F/G/A/E/ D/C/B,/A,/ G,B,CD | %96
 EE, z [^B,,D,] z C,/D,/ ^E,E, | E,F,, z [A,,C,] z B,,/C,/ D,D, | %98
 E,E,, z [G,,B,,] z A,,/^B,,/ ^^C,^C,- | C,B,,/C,/ D,D,, G,,3/2B,,/4D,/4 !fermata!G,2 | z8 | %101
[M:6/8] z6 | z6 | z6 | z6 | z6 | z6 | z6 | z6 | z6 | z6 | z6 | z6 | G,A,B, A,DD, | G,B,A, B,A,G, | %115
 A,B,C B,EG, | A,CB, CB,A, | B,2 G, ^E,2 ^^F, | G,2 E, C,2 D, | E,2 ^E, F,3- | F,3 ^E,3 | %121
 F,2 ^^F, G,3- | G,3 ^^F,3 | G,3 F,3 | E,3 D,3 | C,G, C2 A,^B, | C3 B,3- | B,A,G, ^^F,A,D, | %128
 G,2 G,, G,3- | G,F,^E, D,F,A,, | %130
 C,/4B,,/4C,/4B,,/4C,/4B,,/4C,/4B,,/4C,/4B,,/4C,/4B,,/4 C,/4B,,/4C,/4B,,/4C,/4B,,/4C,/4B,,/4C,/4B,,/4A,,/4B,,/4 | %131
 A,,6 | z6 | D,^E,F, E,A,A,, | D,F,^E, F,E,D, | ^E,F,G, F,B,D, | ^E,G,F, G,F,E, | F,E,D, E,=A,C, | %138
 D,2 z G,,2 z | C,E,C, G,2 F, | E,F,G, C,2 F, | B,,F,B,- B,G,A,- | A,D,G,- G,^E,^^F, | %143
 G,2 A, B,2 ^^C, | D,2 B,, G,,2 A,, | D,3 z z F, | B,3 z z ^B, | C2 B, A,2 =A, | G,B,D, ^^C,A,,C, | %149
 D,2 z G,,2 z | C,2 z F,,2 z | B,,D,A,- A,^^F,A, | B,,2 z C,2 z | D,2 ^^F,, G,,2 B,, | %154
 C,E,A,, D,2 D,, | G,,A,,B,, A,,D,D,, | G,,B,,A,, B,,A,,G,, | A,,B,,C, B,,E,G,, | %158
 A,,C,B,, C,B,,A,, | B,,D,^^F,, G,,B,,D,, | %160
 F,,/4E,,/4F,,/4E,,/4F,,/4E,,/4F,,/4E,,/4F,,/4E,,/4F,,/4E,,/4 F,,/4E,,/4F,,/4E,,/4F,,/4E,,/4F,,/4E,,/4F,,/4E,,/4D,,/4E,,/4 | %161
 D,,2 D, ^E,G,^^F, | G,D,G,- G,F,/^E,/F, | ^E,A,G, F,B,A, | G,A,B, ^E,A,G, | ^^F,G,A, D,G,^F, | %166
 E,F,E, D,E,D, | C,2 C,, G,,^^F,,G,, | D,,2 z z3 | z6 | z6 | z z C ^B,2 =B, | A,2 =A, G,2 ^A, | %173
 B,2 ^B, C3- | C3 ^B,3 | C2 B, A,2 G, | F,2 E, D,2 C, | B,,F,B,- B,A,/G,/A,- | %178
 A,D,G,- G,^^F,/^E,/F, | G,2 E, D,3 | A,G,^^F, G,2 ^^C, | D,2 A,, B,,2 ^B,, | C,2 ^^C, D,2 ^^D, | %183
 ^E,3 z E,D, | C,C^B, A,AG | FD^E F2 ^^F | GG,A, B,2 ^B, | CC,D, E,2 ^E, | F,F,,G,, =A,,2 ^A,, | %189
 B,,2 C, D,2 ^E, | F,2 G, A,2 ^B, | CC,D, ^E,2 ^^F, | G,2 A, B,/C/DC | D6- | D6- | D2 z z3 | z6 | %197
 G,,A,,B,, A,,D,D,, | G,,B,,A,, B,,A,,G,, | A,,B,,C, B,,E,G,, | A,,C,B,, C,B,,A,, | %201
 B,,D,G,- G,^^F,/^E,/F, | G,B,D- D^^C/^B,/C | D2 D, A,2 ^^F, | G,2 ^^C, D,3 | A,3- A,G,F, | %206
 G,3 A,3 | D,2 B,, G,,2 A,, | B,,2 D, ^E,2 ^^F, | G,2 B, C2 D | E2 C A,2 ^B, | C^B,A, =B,A,G, | %212
 =A,2 D, E,2 E,, | B,,2 ^B,, C,2 G, | =A,2 C F,2 B, | E,B,E- ED/C/D- | DG,C- C^B,/A,/B, | %217
 CC,C ^B,2 =B, | A,2 =A, G,2 C | F,E,D, C,B,,A,, | G,,G,A, B,CB, | A,A,,^B,, ^^C,B,,C, | %222
 D,G,F, ^E,A,G, | ^^F,D,F, G,3- | G,3 ^^F,3 | G,2 G,, ^^F,,2 ^F,, | ^E,,2 =E,, D,,2 ^E,, | %227
 F,,2 ^^F,, G,,3- | G,,3 ^^F,,D,C, | D,C,B,, C,B,,A,, | B,,A,,G,, D,3- | D,2 G,, E,3- | %232
 E,D,^^C, D,3- | D,6- | D,C,B,, C,B,,A,, | B,,C,/B,,/A,,/G,,/ D,,3- | D,,2 C,, G,,2 C,, | %237
 F,,2 D,, G,,2 B,, | E,2 C, A,,2 D, | G,,2 B,, E,,E,D, | ^^C,3- C,A,,^B,, | C,3- C,B,,A,, | %242
 B,,A,,G,, D,2 D,, | G,,6 |] %244
V:4
 G,2 z2 G,2 z2 | x8 | G,2 z2 G,2 z2 | x8 | x8 | x8 | x8 | x8 | x8 | x8 | x8 | x8 | x8 | x8 | %14
 x6[K:treble] x2 | x6[K:bass] x2 | x8 | x8 | x8 | x8 | x8 | x8 | x8 | x8 | G,2 z2 G,2 z2 | x8 | %26
 G,2 z2 G,2 z2 | x8 | x8 | x8 | x8 | x8 | x8 | x8 | x8 | x8 | x8 | x8 | x8 | x8 | x8 | x8 | x8 | %43
 x8 | x8 | x8 | x8 | x8 | x8 | x8 | x8 | x8 | x8 | x8 | x8 | x8 | x8 | x8 | x8 | x8 | x8 | x8 | %62
 x8 | x8 | x8 | x8 | x8 | x8 | x2[K:treble] x6 | x2[K:bass] x6 | x8 | x8 | x8 | x8 | x8 | x8 | x8 | %77
 x8 | x8 | x8 | x8 | x8 | x8 | x8 | x8 | x8 | x8 | x8 | x8 | x8 | x8 | x8 | x8 | x8 | x8 | x8 | %96
 x8 | x8 | x8 | x8 | x8 |[M:6/8] x6 | x6 | x6 | x6 | x6 | x6 | x6 | x6 | x6 | x6 | x6 | x6 | x6 | %114
 x6 | x6 | x6 | x6 | x6 | x6 | x6 | x6 | x6 | x6 | x6 | x6 | x6 | x6 | x6 | x6 | x6 | x6 | x6 | %133
 x6 | x6 | x6 | x6 | x6 | x6 | x6 | x6 | x6 | x6 | x6 | x6 | x6 | x6 | x6 | x6 | x6 | x6 | x6 | %152
 x6 | x6 | x6 | x6 | x6 | x6 | x6 | x6 | x6 | x6 | x6 | x6 | x6 | x6 | x6 | x6 | x6 | x6 | x6 | %171
 x6 | x6 | x6 | x6 | x6 | x6 | x6 | x6 | x6 | x6 | x6 | x6 | x6 | x6 | x6 | x6 | x6 | x6 | x6 | %190
 x6 | x6 | x6 | x6 | x6 | x6 | x6 | x6 | x6 | x6 | x6 | x6 | x6 | x6 | x6 | x6 | x6 | x6 | x6 | %209
 x6 | x6 | x6 | x6 | x6 | x6 | x6 | x6 | x6 | x6 | x6 | x6 | x6 | x6 | x6 | x6 | x6 | x6 | x6 | %228
 x6 | x6 | x6 | x6 | x6 | x6 | x6 | x6 | x6 | x6 | x6 | x6 | x6 | x6 | x6 | x6 |] %244
V:5
 x8 | x8 | x8 | x8 | x8 | x8 | x8 | x8 | x8 | x8 | x8 | x8 | x8 | x8 | x8 | x8 | x8 | x8 | x8 | %19
 x8 | x8 | x8 | x8 | x8 | x8 | x8 | x8 | x8 | x8 | x8 | x8 | x8 | x8 | x8 | x8 | x8 | x8 | x8 | %38
 x8 | x8 | x8 | x8 | x8 | x8 | x8 | x8 | x8 | x8 | x8 | x8 | x8 | x8 | x8 | x8 | x8 | x8 | x8 | %57
 x8 | x8 | x8 | x8 | x8 | x8 | x8 | x8 | x8 | x8 | x8 | z4 z ccc | x8 | x8 | x8 | x8 | %73
 z/ D3/2- D/DC/- CB, z2 | x8 | x8 | x8 | x8 | x8 | x8 | x8 | x8 | x8 | x8 | x8 | x8 | x8 | x8 | %88
 x8 | x8 | x8 | x8 | x8 | x8 | z4 z ccc | x8 | x8 | x8 | x8 | z/ D3/2- D/DC/- C!fermata!B, z2 | %100
 x8 |[M:6/8] x6 | x6 | x6 | x6 | x6 | x6 | x6 | x6 | x6 | x6 | x6 | x6 | x6 | x6 | x6 | x6 | x6 | %118
 x6 | x6 | x6 | x6 | x6 | x6 | x6 | x6 | x6 | x6 | x6 | x6 | x6 | x6 | x6 | x6 | x6 | x6 | x6 | %137
 x6 | x6 | x6 | x6 | x6 | x6 | x6 | x6 | x6 | x6 | x6 | x6 | x6 | x6 | x6 | x6 | x6 | x6 | x6 | %156
 x6 | x6 | x6 | x6 | x6 | x6 | x6 | x6 | x6 | x6 | x6 | x6 | x6 | x6 | x6 | x6 | x6 | x6 | x6 | %175
 x6 | x6 | x6 | x6 | x6 | x6 | x6 | x6 | x6 | x6 | x6 | x6 | x6 | x6 | x6 | x6 | x6 | x6 | x6 | %194
 x6 | x6 | x6 | x6 | x6 | x6 | x6 | x6 | x6 | x6 | x6 | x6 | x6 | x6 | x6 | x6 | x6 | x6 | x6 | %213
 x6 | x6 | x6 | x6 | x6 | x6 | x6 | x6 | x6 | x6 | x6 | x6 | x6 | x6 | x6 | x6 | x6 | x6 | x6 | %232
 x6 | x6 | x6 | x6 | x6 | x6 | x6 | x6 | x6 | x6 | x6 | x6 |] %244

